enemy-ship-blue.svg

<?xml version="1.0" encoding="UTF-8" standalone="no" ?>
<!DOCTYPE svg PUBLIC "-//W3C//DTD SVG 1.1//EN" "http://www.w3.org/Graphics/SVG/1.1/DTD/svg11.dtd">
<svg xmlns="http://www.w3.org/2000/svg" xmlns:xlink="http://www.w3.org/1999/xlink" version="1.1" width="1080" height="1080" viewBox="0 0 1080 1080" xml:space="preserve">
<desc>Created with Fabric.js 5.2.4</desc>
<defs>
</defs>
<rect x="0" y="0" width="100%" height="100%" fill="transparent"></rect>
<g transform="matrix(1 0 0 1 540 540)" id="cf1b4b32-da8d-4eb2-976b-166e42651079"  >
<rect style="stroke: none; stroke-width: 1; stroke-dasharray: none; stroke-linecap: butt; stroke-dashoffset: 0; stroke-linejoin: miter; stroke-miterlimit: 4; fill: rgb(255,255,255); fill-rule: nonzero; opacity: 1; visibility: hidden;" vector-effect="non-scaling-stroke"  x="-540" y="-540" rx="0" ry="0" width="1080" height="1080" />
</g>
<g transform="matrix(1 0 0 1 540 540)" id="36f4a67f-318d-4384-bbc4-b1abf4729cdd"  >
</g>
<g transform="matrix(1.08 0 0 1.08 540 540)" id="SVGRepo_iconCarrier"  >
<path style="stroke: none; stroke-width: 1; stroke-dasharray: none; stroke-linecap: butt; stroke-dashoffset: 0; stroke-linejoin: miter; stroke-miterlimit: 4; fill: rgb(31,112,193); fill-rule: nonzero; opacity: 1;"  transform=" translate(-500, -200)" d="M 0 0 L 0 27.367 L 194.648 27.367 L 194.648 0 L 0 0 z M 222.226 0 L 222.226 27.367 L 499.609 27.367 C 499.609 27.367 471.276 0 433.75 0 L 222.226 0 z M 554.023 0 L 554.023 27.367 L 721.835 27.367 L 711.875 0 L 554.023 0 z M 842.148 0 L 832.187 27.367 L 998.476 27.367 L 998.476 0 L 842.148 0 z M 0 53.222 L 0 80.589 L 194.648 80.589 L 194.648 53.222 L 0 53.222 z M 222.226 53.261 L 222.226 80.59 L 531.796 80.59 C 531.796 80.59 528.181 59.527 521.874 53.261 L 222.226 53.261 z M 554.023 53.261 L 554.023 80.59 L 740.234 80.59 L 731.015 53.261 L 554.023 53.261 z M 822.226 53.261 L 813.007 80.59 L 998.4759999999999 80.59 L 998.4759999999999 53.261 L 822.2259999999999 53.261 z M 55.937 106.444 L 55.937 133.85 L 140.23399999999998 133.85 L 140.23399999999998 106.44399999999999 L 55.937 106.44399999999999 z M 278.164 106.444 L 278.164 133.85 L 362.461 133.85 L 362.461 106.44399999999999 L 278.164 106.44399999999999 z M 444.453 106.444 L 444.453 133.85 L 528.75 133.85 C 528.75 133.85 534.102 119.377 534.102 106.44399999999999 L 444.453 106.44399999999999 z M 609.961 106.444 L 609.961 133.85 L 759.414 133.85 L 749.453 106.44399999999999 L 609.961 106.44399999999999 z M 803.867 106.444 L 793.867 133.85 L 944.0619999999999 133.85 L 944.0619999999999 106.44399999999999 L 803.867 106.44399999999999 z M 55.93700000000001 159.70600000000002 L 55.93700000000001 187.073 L 140.234 187.073 L 140.234 159.70600000000002 L 55.937 159.70600000000002 z M 278.164 159.70600000000002 L 278.164 187.073 L 493.476 187.073 C 493.476 187.073 511.488 173.031 517.226 159.70600000000002 L 278.164 159.70600000000002 z M 609.961 159.70600000000002 L 609.961 187.073 L 694.258 187.073 L 694.258 171.839 L 699.61 187.073 L 854.024 187.073 L 859.766 171.839 L 859.766 187.073 L 944.063 187.073 L 944.063 159.70600000000002 L 785.82 159.70600000000002 L 777.422 182.88600000000002 L 768.984 159.70600000000002 L 609.961 159.70600000000002 z M 55.937 212.928 L 55.937 240.295 L 140.23399999999998 240.295 L 140.23399999999998 212.928 L 55.937 212.928 z M 278.164 212.928 L 278.164 240.295 L 517.226 240.295 C 511.487 227.01399999999998 493.476 212.928 493.476 212.928 L 278.164 212.928 z M 609.961 212.928 L 609.961 240.295 L 694.258 240.295 L 694.258 212.928 L 609.961 212.928 z M 709.57 212.928 L 719.7650000000001 240.295 L 835.546 240.295 L 845.234 212.928 L 709.57 212.928 z M 859.7650000000001 212.928 L 859.7650000000001 240.295 L 944.0620000000001 240.295 L 944.0620000000001 212.928 L 859.7650000000001 212.928 z M 55.937 266.15 L 55.937 293.51599999999996 L 140.23399999999998 293.51599999999996 L 140.23399999999998 266.15 L 55.937 266.15 z M 278.164 266.15 L 278.164 293.51599999999996 L 362.461 293.51599999999996 L 362.461 266.15 L 278.164 266.15 z M 444.453 266.15 L 444.453 293.51599999999996 L 534.101 293.51599999999996 C 534.101 280.60099999999994 528.749 266.15 528.749 266.15 L 444.45300000000003 266.15 z M 609.961 266.15 L 609.961 293.51599999999996 L 694.258 293.51599999999996 L 694.258 266.15 L 609.961 266.15 z M 728.711 266.15 L 738.594 293.51599999999996 L 816.211 293.51599999999996 L 826.172 266.15 L 728.711 266.15 z M 859.765 266.15 L 859.765 293.51599999999996 L 944.062 293.51599999999996 L 944.062 266.15 L 859.765 266.15 z M 1.523 319.372 L 1.523 346.778 L 196.171 346.778 L 196.171 319.372 L 1.523 319.372 z M 222.226 319.372 L 222.226 346.778 L 521.874 346.778 C 528.181 340.50300000000004 531.796 319.372 531.796 319.372 L 222.22600000000006 319.372 z M 555.547 319.372 L 555.547 346.778 L 694.258 346.778 L 694.258 319.372 L 555.547 319.372 z M 747.89 319.372 L 758.0459999999999 346.778 L 797.5379999999999 346.778 L 807.0689999999998 319.372 L 747.89 319.372 z M 859.765 319.372 L 859.765 346.778 L 1000 346.778 L 1000 319.372 L 859.765 319.372 z M 1.523 372.633 L 1.523 400 L 196.171 400 L 196.171 372.633 L 1.523 372.633 z M 222.226 372.633 L 222.226 399.96099999999996 L 433.75 399.96099999999996 C 471.276 399.96099999999996 499.609 372.633 499.609 372.633 L 222.226 372.633 z M 555.547 372.633 L 555.547 400 L 694.258 400 L 694.258 372.633 L 555.547 372.633 z M 767.148 372.633 L 776.914 399.923 L 778.5939999999999 399.961 L 788.516 372.63300000000004 L 767.1479999999999 372.63300000000004 z M 859.765 372.633 L 859.765 400 L 1000 400 L 1000 372.633 L 859.765 372.633 z" stroke-linecap="round" />
</g>
<g transform="matrix(1.82 0 0 1.82 317.88 456.41)" id="209923f2-048c-4883-ac42-61fc834e8eb3"  >
<polygon style="stroke: rgb(0,0,0); stroke-width: 0; stroke-dasharray: none; stroke-linecap: butt; stroke-dashoffset: 0; stroke-linejoin: miter; stroke-miterlimit: 4; fill: rgb(238,234,234); fill-rule: nonzero; opacity: 1;" vector-effect="non-scaling-stroke"  points="-18.54,32.11 -37.08,0 -18.54,-32.11 18.54,-32.11 37.08,0 18.54,32.11 " />
</g>
<g transform="matrix(1.77 0 0 1.77 746.13 452.45)" id="7ca72555-f8ce-4dbc-8988-d168d700db36"  >
<polygon style="stroke: rgb(0,0,0); stroke-width: 0; stroke-dasharray: none; stroke-linecap: butt; stroke-dashoffset: 0; stroke-linejoin: miter; stroke-miterlimit: 4; fill: rgb(221,213,213); fill-rule: nonzero; opacity: 1;" vector-effect="non-scaling-stroke"  points="-18.54,32.11 -37.08,0 -18.54,-32.11 18.54,-32.11 37.08,0 18.54,32.11 " />
</g>
<g transform="matrix(3.5 0.43 -0.43 3.5 540 668.98)" id="856573e3-6f55-4111-a2bd-d09b18a8db33"  >
<path style="stroke: rgb(0,0,0); stroke-width: 0; stroke-dasharray: none; stroke-linecap: butt; stroke-dashoffset: 0; stroke-linejoin: miter; stroke-miterlimit: 4; fill: rgb(204,206,123); fill-rule: nonzero; opacity: 1;" vector-effect="non-scaling-stroke"  transform=" translate(-50, -50)" d="M 42.653 45.007 L 30.876 45.007 C 29.645 45.007 28.466 45.263 27.443 45.672 C 26.318 46.134 25.344 46.799 24.525000000000002 47.669 L 24.472 47.669 C 23.654 48.489 22.987000000000002 49.461 22.528000000000002 50.587999999999994 C 22.119000000000003 51.611 21.861 52.791 21.861 54.019999999999996 C 21.861 55.248 22.119 56.373999999999995 22.528000000000002 57.449 C 22.986 58.525 23.653000000000002 59.550999999999995 24.525000000000002 60.369 C 25.344 61.187 26.317000000000004 61.854 27.443 62.314 C 28.466 62.775 29.645000000000003 63.031 30.876 63.031 L 69.124 63.031 C 70.35199999999999 63.031 71.53 62.775 72.553 62.314 C 73.682 61.854 74.65299999999999 61.187 75.524 60.369 C 76.342 59.551 77.009 58.525 77.472 57.449 C 77.92999999999999 56.375 78.13499999999999 55.248 78.13499999999999 54.019999999999996 C 78.13499999999999 52.791 77.92999999999999 51.611 77.472 50.587999999999994 C 77.06299999999999 49.614 76.497 48.69299999999999 75.83099999999999 47.92399999999999 L 75.52299999999998 47.66899999999999 C 74.65199999999999 46.79899999999999 73.68099999999998 46.13399999999999 72.55199999999998 45.67199999999999 C 71.52999999999997 45.21199999999999 70.35099999999998 45.00699999999999 69.12299999999998 45.00699999999999 L 62.46599999999998 44.95599999999999 L 61.23699999999998 44.95599999999999 L 61.23699999999998 35.58499999999999 L 69.12299999999998 35.58499999999999 C 71.63199999999998 35.58499999999999 74.03699999999998 36.09699999999999 76.18899999999998 37.01999999999999 C 78.43999999999998 37.93999999999999 80.44099999999997 39.32399999999999 82.12699999999998 41.01399999999999 L 83.25599999999999 42.13899999999999 L 83.20299999999999 42.13899999999999 C 84.43399999999998 43.62399999999999 85.40499999999999 45.21199999999999 86.17399999999999 47.00399999999999 C 87.04599999999999 49.15399999999999 87.55699999999999 51.50899999999999 87.55699999999999 54.020999999999994 C 87.55699999999999 56.477999999999994 87.04599999999999 58.88399999999999 86.17399999999999 61.035 C 85.25299999999999 63.288999999999994 83.86999999999999 65.33699999999999 82.181 67.02499999999999 L 82.127 67.02499999999999 C 80.441 68.71499999999999 78.44 70.09799999999998 76.189 71.02099999999999 C 74.03699999999999 71.942 71.684 72.40199999999999 69.225 72.40199999999999 L 30.876 72.40199999999999 C 28.364 72.40199999999999 26.011000000000003 71.942 23.859 71.02099999999999 C 21.608 70.09799999999998 19.558 68.71499999999999 17.868000000000002 67.02499999999999 C 16.178 65.33699999999999 14.795000000000002 63.288999999999994 13.825000000000003 61.03499999999999 C 12.953000000000003 58.88499999999999 12.442000000000004 56.47799999999999 12.442000000000004 54.02099999999999 C 12.442000000000004 51.508999999999986 12.954000000000004 49.15499999999999 13.825000000000003 47.003999999999984 C 14.795000000000003 44.75099999999998 16.178000000000004 42.70299999999998 17.868000000000002 41.012999999999984 C 19.558 39.322999999999986 21.608000000000004 37.93999999999998 23.859 36.96799999999998 C 26.011000000000003 36.09599999999998 28.364 35.58499999999998 30.876 35.58499999999998 L 43.521 35.58499999999998 C 42.346000000000004 33.28099999999998 40.399 31.18199999999998 40.399 28.466999999999977 C 40.399 27.13699999999998 43.521 27.494999999999976 44.7 28.466999999999977 C 49.001000000000005 31.846999999999976 53.354 35.226999999999975 57.655 38.60699999999998 C 58.833 39.52799999999998 58.833 41.064999999999976 57.655 41.98499999999998 C 53.354 45.36499999999998 49.001000000000005 48.744999999999976 44.7 52.125999999999976 C 43.521 53.046999999999976 40.399 53.455999999999975 40.399 52.125999999999976 C 40.398 50.025 41.577 47.464 42.653 45.007 z" stroke-linecap="round" />
</g>
<g transform="matrix(1.37 0 0 1.37 521.89 512.55)" id="0e708151-33e6-4ef6-8585-96bfa21b67d2"  >
<path style="stroke: rgb(0,0,0); stroke-width: 0; stroke-dasharray: none; stroke-linecap: butt; stroke-dashoffset: 0; stroke-linejoin: miter; stroke-miterlimit: 4; fill: rgb(223,199,199); fill-rule: nonzero; opacity: 1;" vector-effect="non-scaling-stroke"  transform=" translate(-50, -50)" d="M 40.747 13.955 L 59.254000000000005 13.955 C 60.353 13.955 61.242000000000004 14.845 61.242000000000004 15.941 L 61.242000000000004 38.787 L 84.08600000000001 38.787 C 85.18400000000001 38.787 86.07000000000001 39.675 86.07000000000001 40.772999999999996 L 86.07000000000001 59.226 C 86.07000000000001 60.324999999999996 85.183 61.211999999999996 84.08600000000001 61.211999999999996 L 61.242 61.211999999999996 L 61.242 84.05799999999999 C 61.242 85.157 60.352 86.044 59.254 86.044 L 40.747 86.044 C 39.652 86.044 38.762 85.15599999999999 38.762 84.05799999999999 L 38.762 61.213 L 15.915 61.213 C 14.819999999999999 61.213 13.93 60.325 13.93 59.227000000000004 L 13.93 40.773 C 13.93 39.67400000000001 14.82 38.787000000000006 15.915 38.787000000000006 L 38.762 38.787000000000006 L 38.762 15.941 C 38.762 14.845 39.651 13.955 40.747 13.955 z" stroke-linecap="round" />
</g>
</svg>

<svg viewBox="0 -300 1000 1000" xmlns="http://www.w3.org/2000/svg" fill="#000000"><g id="SVGRepo_bgCarrier" stroke-width="0"></g><g id="SVGRepo_tracerCarrier" stroke-linecap="round" stroke-linejoin="round"></g><g id="SVGRepo_iconCarrier"><path d="M0 0v27.367h194.648V0H0zm222.226 0v27.367h277.383S471.276 0 433.75 0H222.226zm331.797 0v27.367h167.812L711.875 0H554.023zm288.125 0l-9.961 27.367h166.289V0H842.148zM0 53.222v27.367h194.648V53.222H0zm222.226.039V80.59h309.57s-3.615-21.063-9.922-27.329H222.226zm331.797 0V80.59h186.211l-9.219-27.329H554.023zm268.203 0l-9.219 27.329h185.469V53.261h-176.25zM55.937 106.444v27.406h84.297v-27.406H55.937zm222.227 0v27.406h84.297v-27.406h-84.297zm166.289 0v27.406h84.297s5.352-14.473 5.352-27.406h-89.649zm165.508 0v27.406h149.453l-9.961-27.406H609.961zm193.906 0l-10 27.406h150.195v-27.406H803.867zm-747.93 53.262v27.367h84.297v-27.367H55.937zm222.227 0v27.367h215.312s18.012-14.042 23.75-27.367H278.164zm331.797 0v27.367h84.297v-15.234l5.352 15.234h154.414l5.742-15.234v15.234h84.297v-27.367H785.82l-8.398 23.18-8.438-23.18H609.961zM55.937 212.928v27.367h84.297v-27.367H55.937zm222.227 0v27.367h239.062c-5.739-13.281-23.75-27.367-23.75-27.367H278.164zm331.797 0v27.367h84.297v-27.367h-84.297zm99.609 0l10.195 27.367h115.781l9.688-27.367H709.57zm150.195 0v27.367h84.297v-27.367h-84.297zM55.937 266.15v27.366h84.297V266.15H55.937zm222.227 0v27.366h84.297V266.15h-84.297zm166.289 0v27.366h89.648c0-12.915-5.352-27.366-5.352-27.366h-84.296zm165.508 0v27.366h84.297V266.15h-84.297zm118.75 0l9.883 27.366h77.617l9.961-27.366h-97.461zm131.054 0v27.366h84.297V266.15h-84.297zM1.523 319.372v27.406h194.648v-27.406H1.523zm220.703 0v27.406h299.648c6.307-6.275 9.922-27.406 9.922-27.406h-309.57zm333.321 0v27.406h138.711v-27.406H555.547zm192.343 0l10.156 27.406h39.492l9.531-27.406H747.89zm111.875 0v27.406H1000v-27.406H859.765zM1.523 372.633V400h194.648v-27.367H1.523zm220.703 0v27.328H433.75c37.526 0 65.859-27.328 65.859-27.328H222.226zm333.321 0V400h138.711v-27.367H555.547zm211.601 0l9.766 27.29 1.68.038 9.922-27.328h-21.368zm92.617 0V400H1000v-27.367H859.765z" fill="#1f70c1"></path></g></svg>
